X:21
T:Didelots Dance In Virginia. WI.021
M:3/4
L:1/8
Q:1/4=90
S:Wm Irwin, 1838 MS, AGG’s Transcription
R:.Misc.
O:England
A:Lake District
Z:vmp.Chris Partington.2005
K:G
.B(B/A/) .G(G/A/) BG|cA A2cA|\
BG .G(A/B/) (F/G/A/B/)|.A(A/G/) .F(F/E/) (D/F/G/A/)|!
.B(B/A/) .G(G/A/) BG|cA A2cA|\
Bd .F(F/G/) .A(A/B/)|.G(G/F/) GB Gz||!
dd/^c/ dd/^c/ dg|dc/B/ c2 (A/B/c/A/)|\
.B(B/c/) .B(B/c/) (e/d/c/B/)|.A(A/B/) .A(A/B/) .A(A/B/) |!
dd/^c/ dd/^c/ dg|dc/B/ c2 (A/B/c/A/)|\
A(A/B/) A(A/B/) A2|” supposed”.G(G/F/) GB Gz|]
W:Last bar missing from MS

